X:218
T:Ode to Joy
R:
M:4/4
K:D
F4 G2 A2 | A2 G2 F2 E2 | D2 D2 E2 F2 | F3 E E4 |
F4 G2 A2 | A2 G2 F2 E2 | D2 D2 E2 F2 | E3 D D4 ||
E2 E2 F2 D2 | E2 FG F2 D2 | E2 FG F2 E2 | D2 E2 A,4 |
F4 G2 A2 | A2 G2 F2 E2 | D2 D2 E2 F2 | E3 D D4 ||
